X:27
T:Laid O' Cockpen, The
C:arr. Carlo Minasi
M:6/8
L:1/8
B:Arranged for the Concertina by Carlo Minasi
Q:"Spiritoso  "3/8=100
Z:Peter Dunk 2012
K:Gm
!mf!D|([GB,]>AG) B2 B|([AF]F)F F2 A|\
(G>AG) Lg2 g/g/|([fdB]>dd) (d/e/)|
.f.B.d .f.e.d|.c.d.B H[A2^F2D2] (B/c/)|\
(d>ed) (d2 c)|L(B<G)G G2||

